X: 18600
T: I Told You, Old Woman
R: polka
M: 2/4
K: Gmajor
dd ef|gg {g}a2 g|dd cB|{B}d2 G z|
dd ef|g<g a2 g|dd cB|{B}d2 G z|
|:{B}d2 B2|{B}c2 A2|GB {B}dc|BA z2|
GB {B}dc|B A2 F|G4|G z z2:|F8||

